!!!COM:	Busnoys, Antoine
!!!CDT:	~1430///-1492/11/06
!!!OTL:	Ung grand povre homme
!!!AGN:	Song; Chanson
!!!SCT:	Bus3058
!!!SCA:	Bus3058
!!!voices:	3
**kern	**kern	**kern
*staff3	*staff2	*staff1
*Ivox	*Ivox	*Ivox
*I"Contra	*I"Tenor	*I"Superius
*I'C	*I'T	*I'S
*clefGv2	*clefGv2	*clefG2
*k[]	*k[]	*k[]
*M2/1	*M2/1	*M2/1
*met(C|)	*met(C|)	*met(C|)
=1-	=1-	=1-
!!LO:TX:Z=24:t=Rondeau?
0F	0f	0cc
=2	=2	=2
1F	1.f	1a
1F	.	1a
.	2e	.
=3	=3	=3
1G	1d	1b
1G	1d	1b
=4	=4	=4
2A	1.c	1.cc
1A	.	.
4G	2d	2b
4F	.	.
=5	=5	=5
1E	1e	1g
2D	1f	2a
[2F	.	[2a
=6	=6	=6
2F]	1d	2a]
2G	.	2f
1C	1c	1e
=7	=7	=7
2D	2A	2f
2BB-	2B-i	2.g
1C	2G	.
.	.	4f
.	[2c	4e
.	.	4d
=8	=8	=8
1G	2c]	2e
.	2B	2d
2A	2c	2c
2F	2A	2a
=9	=9	=9
1D	1F	4b-i
.	.	4a
.	.	4g
.	.	4f
1C	1G	2.e
.	.	4d
=10	=10	=10
1r	0F	[0f
1c	.	.
=11	=11	=11
1d	1r	0f]
2.A	2.F	.
4B	4G	.
=12	=12	=12
2c	2A	1r
1d	1B-i	.
.	.	1g
2e	4A	.
.	4G	.
=13	=13	=13
1.f	0F	1a
.	.	1a
4e	.	.
4d	.	.
=14	=14	=14
1.e	1r	1g
.	1G	1b
2d	.	.
=15	=15	=15
2c	1A	2a
1e	.	1cc
.	1A	.
4d	.	4b
4c	.	4a
=16	=16	=16
1d	1G	1b
1G	1B	1dd
=17	=17	=17
0C	2A	2ee
.	1c	1ee
.	4B	2cc
.	4A	.
=18	=18	=18
1r	1G	1dd
1C	1g	[1ee
=19	=19	=19
1G	1c	2ee]
.	.	2cc
1c	1e	[1cc
=20	=20	=20
0G	0d	1cc]
.	.	1b
=21	=21	=21
1c	1r	0cc
[1F	[1c	.
=22	=22	=22
1F]	1c]	1r
1F	1f	1a
=23	=23	=23
1.F	1.f	1.a
2C	2e	2g
=24	=24	=24
0D	1d	1f
.	1d	[1b-i
=25	=25	=25
0F	1c	2b-]
.	.	2a
.	1A	[1a
=26	=26	=26
0E	0B-i	1a]
.	.	1g
=27	=27	=27
1F	2A	1a
.	2F	.
2G	2.E	2g
2F	.	[2a
.	4F	.
=28	=28	=28
2E	2G	4a]
.	.	4b
2C	2A	2cc
2G	2.G	2b
2F	.	2a
.	4A	.
=29	=29	=29
2E	2B	2g
2C	1c	2e
1D	.	2.f
.	2B	.
.	.	4g
=30	=30	=30
[0C	[0c	[0e
=31	=31	=31
0C]	0c]	0e]
=32	=32	=32
1.e	1.g	0r
2c	2e	.
=33	=33	=33
0d	2f	0r
.	1a	.
.	4g	.
.	4f	.
=34	=34	=34
1c	2e	1.g
.	1c	.
1C	.	.
.	2e	2e
=35	=35	=35
0D	2d	2f
.	1f	1a
.	4e	4g
.	4d	4f
=36	=36	=36
1E	2c	2e
.	1e	1g
1C	.	.
.	4d	4f
.	4c	4e
=37	=37	=37
0D	1B	2d
.	.	1f
.	1B	.
.	.	4e
.	.	4d
=38	=38	=38
0C	1c	1e
.	1e	1c
=39	=39	=39
1F	0d	1d
1D	.	1f
=40	=40	=40
0E	1c	1e
.	1G	[1g
=41	=41	=41
0C	2A	2g]
.	2B	2f
.	[1c	1e
=42	=42	=42
0G	1c]	0d
.	1B	.
=43	=43	=43
1.A	1.c	1c
.	.	1r
2B	2d	.
=44	=44	=44
1c	1e	1cc
1B	2f	1dd
.	[2g	.
=45	=45	=45
1c	2g]	1ee
.	1a	.
2A	.	2cc
[2B	2f	[2dd
=46	=46	=46
2B]	2g	4dd]
.	.	4cc
2c	2e	1cc
1G	1d	.
.	.	2b
=47	=47	=47
2A	[0c	0cc
4G	.	.
4F	.	.
2E	.	.
[2F	.	.
=48	=48	=48
2F]	0c]	1r
4E	.	.
4D	.	.
1C	.	1cc
=49	=49	=49
1D	1r	1f
1E	1c	1g
=50	=50	=50
1D	1F	1a
1r	2.G	4b-i
.	.	4a
.	.	4g
.	4A	4f
=51	=51	=51
1E	1B-i	4g
.	.	4f
.	.	4e
.	.	4d
1F	2A	2.c
.	2F	.
.	.	4d
=52	=52	=52
2E	2G	2e
2D	2.A	2.f
1F	.	.
.	4B	4g
.	[2c	2a
=53	=53	=53
2E	2c]	2g
2C	2e	1cc
1G	1d	.
.	.	2b
=54	=54	=54
1C	2.c	2.cc
.	4d	4b
2A	2e	2cc
2F	2f	[2dd
=55	=55	=55
1G	1d	4dd]
.	.	4cc
.	.	4b
.	.	4a
1E	1e	2g
.	.	2cc
=56	=56	=56
2D	2f	2dd
2C	2.g	2.ee
2G	.	.
.	4f	4cc
[2F	[2a	[2ff
=57	=57	=57
1F]	4a]	4ff]
.	4g	4ee
.	4f	4dd
.	4e	4cc
2G	2d	2b
2A	2c	[2ee
=58	=58	=58
1c	1e	4ee]
.	.	4dd
.	.	1cc
1G	1d	.
.	.	2b
=59	=59	=59
2A	2c	2.cc
2F	2A	.
.	.	4b
2E	2B	2g
2F	2A	2a
=60	=60	=60
1D	1F	4b-i
.	.	4a
.	.	4g
.	.	4f
1C	1G	2.e
.	.	4d
=61	=61	=61
0cl	0Fl	0fl
==	==	==
*-	*-	*-
!!!RDF**kern: l=long note in original notation
!!!RDF**kern: i=editorial accidental
!!!ENC:	Chris Gage 04-22-2015
!!!END:	2016/02/08/
!!!EED:	Jesse Rodin
!!!EEV:	2016/02/08/
!!!ONB:	Translated from MusicXML and edited on 2016/02/08/ by Craig Sapp
!!muse2ps: C^@{COM}^i2I150v95,95,150Q16
